src/main/webapp/data/sgp.svg

<svg height="2880" width="4320" xmlns="http://www.w3.org/2000/svg" xmlns:xlink="http://www.w3.org/1999/xlink"><path d="m0 0h4320v1440h-4320z" fill="#ed2939"/><path d="m0 1440h4320v1440h-4320z" fill="#fff"/><path d="m1481.678 720a541.5 541.5 0 1 1 -1083.00002 0 541.5 541.5 0 1 1 1083.00002 0z" fill="#fff"/><path d="m1651.835 720a511.73499 511.73499 0 1 1 -1023.47001 0 511.73499 511.73499 0 1 1 1023.47001 0z" fill="#ed2939"/><path id="a" d="m1007.1951 733.06439-73.56044-56.43014-73.54187 56.45692 28.31308-90.9943-73.7944-56.09157 91.05893.1928 27.9345-91.12343 27.96444 91.11331 91.05886-.22552-73.776 56.11834z" fill="#fff"/><use transform="translate(577.18853)" xlink:href="#a"/><use transform="translate(288.88853 -214.21117)" xlink:href="#a"/><use transform="translate(107.99953 342.74883)" xlink:href="#a"/><use transform="translate(469.18853 342.74883)" xlink:href="#a"/></svg>

<?xml version="1.0" encoding="UTF-8"?>
<svg xmlns="http://www.w3.org/2000/svg" xmlns:xlink="http://www.w3.org/1999/xlink" width="4320" height="2880">
<rect fill="#ed2939" width="4320" height="1440"/>
<rect fill="#fff" y="1440" width="4320" height="1440"/>  
<path fill="#fff" d="M 1481.678,720 A 541.5,541.5 0 1 1 398.67798,720 A 541.5,541.5 0 1 1 1481.678,720 z"/>
<path fill="#ed2939" d="M 1651.835,720 A 511.73499,511.73499 0 1 1 628.36499,720 A 511.73499,511.73499 0 1 1 1651.835,720 z"/>
<path fill="#fff" id="star" d="M 1007.1951,733.06439 L 933.63466,676.63425 L 860.09279,733.09117 L 888.40587,642.09687 L 814.61147,586.0053 L 905.6704,586.1981 L 933.6049,495.07467 L 961.56934,586.18798 L 1052.6282,585.96246 L 978.8522,642.0808 L 1007.1951,733.06439 z"/>
<use xlink:href="#star" transform="translate(577.18853,0)"/>
<use xlink:href="#star" transform="translate(288.88853,-214.21117)"/>
<use xlink:href="#star" transform="translate(107.99953,342.74883)"/>
<use xlink:href="#star" transform="translate(469.18853,342.74883)"/>
</svg>
